X:1
T:Mr. Alexander Troup's
T:Mr. Alexander Troup's
T:Alexander Walker
C:Alexander Walker
L:1/8
M:4/4
K:F#min
V:1 treble 
V:1
 E | (C<F)F>G A>Bc>e | G>EB>E e>E B>E | (C<F)F>G A>Bc>d |{d} e>c{c}B>G F/F/F F :| G | %6
 (F<f)f>(g a/8) x3 (f/g/)(e/ z/64 | f>)(ce>)(B c/8) x3 (A/B/)G/ z/64 | F<ff>g a>fg>e | %9
 c>Be>G F/F/F F>f | a>fF>f A>fc>f | e>EG>B E>BG>E | F>CF>G A>Bc>d | e>c{c}B>G F/F/F F || %14

